X: 1391
T: Doris Merrill's Irish Washerwoman
B: australian traditional tunes wiki
M:6/8
L:1/8
R: Jig
Q: 3/8=100
K:D
V:1 
A|:"D"dcd D2A|"D"FGA dcd|"A7"cde E2E|"A7"CB,C A^GA|"G"Bcd "A7"cBA|"G"BAG "D"FGF|"A7"EDC DEG|1"D"FDD D2A:|2"D"FDD D2F/G/||
|:"D"A2DF2D|"D"A2DF2D|"Em"BcdE2E|"Em"B2EG2E|"G"Bcd "A7"cBA|"G"cBA "D"FGF|"A7"EDC DEG|1"D"FDDD2F/G/:|2"D"FDDD3||
% abcbook-tune_id 6342d53af43ebfeb2eabbc8c


% abcbook-boost 0
% abcbook-tablature 
% abcbook-transpose 
% abcbook-lastupdated 1665324362743
% abcbook-soundfonts 
% abcbook-repeats 1
% NFF Book 2015

